X: 29
T:Princess Royal, Bledington 2
M:4/4
L:1/8
R:Hornpipe
A:Bledington
P:AAB(CB)2
K:GDor
P:A
dc|B2A2 G2dc |B2A2 G2dd |e2c2 cdec|d2B2 B2-Bd|
c2BB A2G2 |F2EE D2c2 |B2AG F2A2|G4   G2   ||
P:B
de|f2d2 defd |g2G2 G4   |gfed cBAG|A2F2 F2-FF|
G2G2 B2-BB|c2c2 f2-ff|e2c2 d2dc|B2G2 c4   |
BAGF GABc |d2G2 G2dc |B2AG F2A2|G4   G2z2 ||
P:C
d3c  B4   |A4   G4   |d3c  B4  |A4   G4   |
d3d  e4   |c4   c3d  |e3c  d4  |B4   B2-Bd|
c2BB A2G2 |F2EE D2c2 |B2AG F2A2|G4   G2   ||

